images/50947273.svg

<?xml version="1.0" encoding="UTF-8"?>
<svg xmlns="http://www.w3.org/2000/svg" xmlns:xlink="http://www.w3.org/1999/xlink" width="300pt" height="300pt" viewBox="0 0 300 300" version="1.1">
<defs>
<g>
<symbol overflow="visible" id="glyph0-0">
<path style="stroke:none;" d="M 0.453125 1.59375 L 0.453125 -6.34375 L 4.953125 -6.34375 L 4.953125 1.59375 Z M 0.953125 1.09375 L 4.453125 1.09375 L 4.453125 -5.84375 L 0.953125 -5.84375 Z M 0.953125 1.09375 "/>
</symbol>
<symbol overflow="visible" id="glyph0-1">
<path style="stroke:none;" d="M 3.546875 -5.953125 C 2.898438 -5.953125 2.382812 -5.710938 2 -5.234375 C 1.625 -4.753906 1.4375 -4.101562 1.4375 -3.28125 C 1.4375 -2.445312 1.625 -1.789062 2 -1.3125 C 2.382812 -0.832031 2.898438 -0.59375 3.546875 -0.59375 C 4.191406 -0.59375 4.703125 -0.832031 5.078125 -1.3125 C 5.453125 -1.789062 5.640625 -2.445312 5.640625 -3.28125 C 5.640625 -4.101562 5.453125 -4.753906 5.078125 -5.234375 C 4.703125 -5.710938 4.191406 -5.953125 3.546875 -5.953125 Z M 3.546875 -6.6875 C 4.460938 -6.6875 5.195312 -6.375 5.75 -5.75 C 6.300781 -5.132812 6.578125 -4.3125 6.578125 -3.28125 C 6.578125 -2.238281 6.300781 -1.410156 5.75 -0.796875 C 5.195312 -0.179688 4.460938 0.125 3.546875 0.125 C 2.617188 0.125 1.878906 -0.179688 1.328125 -0.796875 C 0.773438 -1.410156 0.5 -2.238281 0.5 -3.28125 C 0.5 -4.3125 0.773438 -5.132812 1.328125 -5.75 C 1.878906 -6.375 2.617188 -6.6875 3.546875 -6.6875 Z M 3.546875 -6.6875 "/>
</symbol>
<symbol overflow="visible" id="glyph0-2">
<path style="stroke:none;" d="M 0.890625 -6.5625 L 2.078125 -6.5625 L 4.984375 -1.078125 L 4.984375 -6.5625 L 5.84375 -6.5625 L 5.84375 0 L 4.65625 0 L 1.75 -5.484375 L 1.75 0 L 0.890625 0 Z M 0.890625 -6.5625 "/>
</symbol>
<symbol overflow="visible" id="glyph0-3">
<path style="stroke:none;" d="M 0.890625 -6.5625 L 1.765625 -6.5625 L 1.765625 -3.875 L 5 -3.875 L 5 -6.5625 L 5.890625 -6.5625 L 5.890625 0 L 5 0 L 5 -3.125 L 1.765625 -3.125 L 1.765625 0 L 0.890625 0 Z M 0.890625 -6.5625 "/>
</symbol>
</g>
</defs>
<g id="surface8713">
<rect x="0" y="0" width="300" height="300" style="fill:rgb(100%,100%,100%);fill-opacity:1;stroke:none;"/>
<path style="fill:none;stroke-width:1.2;stroke-linecap:butt;stroke-linejoin:miter;stroke:rgb(100%,0%,0%);stroke-opacity:1;stroke-miterlimit:10;" d="M 258.765625 131.46875 L 253.351562 142.765625 "/>
<path style="fill:none;stroke-width:1.2;stroke-linecap:butt;stroke-linejoin:miter;stroke:rgb(0%,0%,0%);stroke-opacity:1;stroke-miterlimit:10;" d="M 253.351562 142.765625 L 247.9375 154.0625 "/>
<path style="fill:none;stroke-width:1.2;stroke-linecap:butt;stroke-linejoin:miter;stroke:rgb(100%,0%,0%);stroke-opacity:1;stroke-miterlimit:10;" d="M 264.082031 134.015625 L 258.667969 145.3125 "/>
<path style="fill:none;stroke-width:1.2;stroke-linecap:butt;stroke-linejoin:miter;stroke:rgb(0%,0%,0%);stroke-opacity:1;stroke-miterlimit:10;" d="M 258.667969 145.3125 L 253.253906 156.609375 "/>
<path style=" stroke:none;fill-rule:nonzero;fill:rgb(100%,100%,100%);fill-opacity:1;" d="M 257.421875 127.242188 L 265.421875 127.242188 L 265.421875 138.242188 L 257.421875 138.242188 Z M 257.421875 127.242188 "/>
<g style="fill:rgb(100%,0%,0%);fill-opacity:1;">
  <use xlink:href="#glyph0-1" x="257.421875" y="135.905273"/>
</g>
<path style="fill:none;stroke-width:1.2;stroke-linecap:butt;stroke-linejoin:miter;stroke:rgb(0%,0%,0%);stroke-opacity:1;stroke-miterlimit:10;" d="M 250.597656 155.335938 L 238.109375 156.292969 "/>
<path style="fill:none;stroke-width:1.2;stroke-linecap:butt;stroke-linejoin:miter;stroke:rgb(0%,0%,100%);stroke-opacity:1;stroke-miterlimit:10;" d="M 238.109375 156.292969 L 225.617188 157.253906 "/>
<path style="fill:none;stroke-width:1.2;stroke-linecap:butt;stroke-linejoin:miter;stroke:rgb(0%,0%,0%);stroke-opacity:1;stroke-miterlimit:10;" d="M 250.597656 155.335938 L 264.75 176.007812 "/>
<path style="fill:none;stroke-width:1.2;stroke-linecap:butt;stroke-linejoin:miter;stroke:rgb(0%,0%,100%);stroke-opacity:1;stroke-miterlimit:10;" d="M 225.617188 157.253906 L 220.207031 168.550781 "/>
<path style="fill:none;stroke-width:1.2;stroke-linecap:butt;stroke-linejoin:miter;stroke:rgb(0%,0%,0%);stroke-opacity:1;stroke-miterlimit:10;" d="M 220.207031 168.550781 L 214.792969 179.847656 "/>
<path style="fill:none;stroke-width:1.2;stroke-linecap:butt;stroke-linejoin:miter;stroke:rgb(0%,0%,100%);stroke-opacity:1;stroke-miterlimit:10;" d="M 225.617188 157.253906 L 218.542969 146.917969 "/>
<path style="fill:none;stroke-width:1.2;stroke-linecap:butt;stroke-linejoin:miter;stroke:rgb(0%,0%,0%);stroke-opacity:1;stroke-miterlimit:10;" d="M 218.542969 146.917969 L 211.464844 136.582031 "/>
<path style=" stroke:none;fill-rule:nonzero;fill:rgb(100%,100%,100%);fill-opacity:1;" d="M 222.617188 151.753906 L 229.617188 151.753906 L 229.617188 162.753906 L 222.617188 162.753906 Z M 222.617188 151.753906 "/>
<g style="fill:rgb(0%,0%,100%);fill-opacity:1;">
  <use xlink:href="#glyph0-2" x="222.617188" y="160.416992"/>
</g>
<path style="fill:none;stroke-width:1.2;stroke-linecap:butt;stroke-linejoin:miter;stroke:rgb(0%,0%,0%);stroke-opacity:1;stroke-miterlimit:10;" d="M 211.464844 136.582031 L 186.488281 138.503906 "/>
<path style="fill:none;stroke-width:1.2;stroke-linecap:butt;stroke-linejoin:miter;stroke:rgb(0%,0%,0%);stroke-opacity:1;stroke-miterlimit:10;" d="M 208.515625 130.898438 L 188.535156 132.433594 "/>
<path style="fill:none;stroke-width:1.2;stroke-linecap:butt;stroke-linejoin:miter;stroke:rgb(0%,0%,0%);stroke-opacity:1;stroke-miterlimit:10;" d="M 222.292969 113.992188 L 211.464844 136.582031 "/>
<path style="fill:none;stroke-width:1.2;stroke-linecap:butt;stroke-linejoin:miter;stroke:rgb(0%,0%,0%);stroke-opacity:1;stroke-miterlimit:10;" d="M 186.488281 138.503906 L 172.335938 117.832031 "/>
<path style="fill:none;stroke-width:1.2;stroke-linecap:butt;stroke-linejoin:miter;stroke:rgb(0%,0%,0%);stroke-opacity:1;stroke-miterlimit:10;" d="M 172.335938 117.832031 L 159.917969 116.175781 "/>
<path style="fill:none;stroke-width:1.2;stroke-linecap:butt;stroke-linejoin:miter;stroke:rgb(0%,0%,100%);stroke-opacity:1;stroke-miterlimit:10;" d="M 159.917969 116.175781 L 147.503906 114.519531 "/>
<path style="fill:none;stroke-width:1.2;stroke-linecap:butt;stroke-linejoin:miter;stroke:rgb(0%,0%,0%);stroke-opacity:1;stroke-miterlimit:10;" d="M 183.160156 95.242188 L 172.335938 117.832031 "/>
<path style="fill:none;stroke-width:1.2;stroke-linecap:butt;stroke-linejoin:miter;stroke:rgb(0%,0%,0%);stroke-opacity:1;stroke-miterlimit:10;" d="M 187.394531 100.046875 L 178.734375 118.121094 "/>
<path style="fill:none;stroke-width:1.2;stroke-linecap:butt;stroke-linejoin:miter;stroke:rgb(0%,0%,100%);stroke-opacity:1;stroke-miterlimit:10;" d="M 147.503906 114.519531 L 145.242188 102.199219 "/>
<path style="fill:none;stroke-width:1.2;stroke-linecap:butt;stroke-linejoin:miter;stroke:rgb(0%,0%,0%);stroke-opacity:1;stroke-miterlimit:10;" d="M 145.242188 102.199219 L 142.980469 89.878906 "/>
<path style="fill:none;stroke-width:1.2;stroke-linecap:butt;stroke-linejoin:miter;stroke:rgb(0%,0%,100%);stroke-opacity:1;stroke-miterlimit:10;" d="M 147.503906 114.519531 L 138.863281 123.589844 "/>
<path style="fill:none;stroke-width:1.2;stroke-linecap:butt;stroke-linejoin:miter;stroke:rgb(0%,0%,0%);stroke-opacity:1;stroke-miterlimit:10;" d="M 138.863281 123.589844 L 130.226562 132.660156 "/>
<path style=" stroke:none;fill-rule:nonzero;fill:rgb(100%,100%,100%);fill-opacity:1;" d="M 144.503906 109.019531 L 151.503906 109.019531 L 151.503906 120.019531 L 144.503906 120.019531 Z M 144.503906 109.019531 "/>
<g style="fill:rgb(0%,0%,100%);fill-opacity:1;">
  <use xlink:href="#glyph0-2" x="144.503906" y="117.682617"/>
</g>
<path style="fill:none;stroke-width:1.2;stroke-linecap:butt;stroke-linejoin:miter;stroke:rgb(0%,0%,0%);stroke-opacity:1;stroke-miterlimit:10;" d="M 142.980469 89.878906 L 165.019531 77.960938 "/>
<path style="fill:none;stroke-width:1.2;stroke-linecap:butt;stroke-linejoin:miter;stroke:rgb(0%,0%,0%);stroke-opacity:1;stroke-miterlimit:10;" d="M 147.988281 93.871094 L 165.617188 84.339844 "/>
<path style="fill:none;stroke-width:1.2;stroke-linecap:butt;stroke-linejoin:miter;stroke:rgb(0%,0%,0%);stroke-opacity:1;stroke-miterlimit:10;" d="M 165.019531 77.960938 L 183.160156 95.242188 "/>
<path style="fill:none;stroke-width:1.2;stroke-linecap:butt;stroke-linejoin:miter;stroke:rgb(0%,0%,0%);stroke-opacity:1;stroke-miterlimit:10;" d="M 183.160156 95.242188 L 208.140625 93.320312 "/>
<path style="fill:none;stroke-width:1.2;stroke-linecap:butt;stroke-linejoin:miter;stroke:rgb(0%,0%,0%);stroke-opacity:1;stroke-miterlimit:10;" d="M 208.140625 93.320312 L 222.292969 113.992188 "/>
<path style="fill:none;stroke-width:1.2;stroke-linecap:butt;stroke-linejoin:miter;stroke:rgb(0%,0%,0%);stroke-opacity:1;stroke-miterlimit:10;" d="M 204.691406 98.714844 L 216.011719 115.253906 "/>
<path style="fill:none;stroke-width:1.2;stroke-linecap:butt;stroke-linejoin:miter;stroke:rgb(0%,0%,0%);stroke-opacity:1;stroke-miterlimit:10;" d="M 130.226562 132.660156 L 118.050781 129.714844 "/>
<path style="fill:none;stroke-width:1.2;stroke-linecap:butt;stroke-linejoin:miter;stroke:rgb(0%,0%,100%);stroke-opacity:1;stroke-miterlimit:10;" d="M 118.050781 129.714844 L 105.875 126.769531 "/>
<path style="fill:none;stroke-width:1.2;stroke-linecap:butt;stroke-linejoin:miter;stroke:rgb(0%,0%,0%);stroke-opacity:1;stroke-miterlimit:10;" d="M 126.402344 137.800781 L 116.664062 135.441406 "/>
<path style="fill:none;stroke-width:1.2;stroke-linecap:butt;stroke-linejoin:miter;stroke:rgb(0%,0%,100%);stroke-opacity:1;stroke-miterlimit:10;" d="M 116.664062 135.441406 L 106.925781 133.085938 "/>
<path style="fill:none;stroke-width:1.2;stroke-linecap:butt;stroke-linejoin:miter;stroke:rgb(0%,0%,0%);stroke-opacity:1;stroke-miterlimit:10;" d="M 137.296875 156.691406 L 130.226562 132.660156 "/>
<path style="fill:none;stroke-width:1.2;stroke-linecap:butt;stroke-linejoin:miter;stroke:rgb(0%,0%,100%);stroke-opacity:1;stroke-miterlimit:10;" d="M 105.875 126.769531 L 97.238281 135.839844 "/>
<path style="fill:none;stroke-width:1.2;stroke-linecap:butt;stroke-linejoin:miter;stroke:rgb(0%,0%,0%);stroke-opacity:1;stroke-miterlimit:10;" d="M 97.238281 135.839844 L 88.597656 144.910156 "/>
<path style=" stroke:none;fill-rule:nonzero;fill:rgb(100%,100%,100%);fill-opacity:1;" d="M 102.875 121.269531 L 109.875 121.269531 L 109.875 132.269531 L 102.875 132.269531 Z M 102.875 121.269531 "/>
<g style="fill:rgb(0%,0%,100%);fill-opacity:1;">
  <use xlink:href="#glyph0-2" x="102.875" y="129.932617"/>
</g>
<path style="fill:none;stroke-width:1.2;stroke-linecap:butt;stroke-linejoin:miter;stroke:rgb(0%,0%,0%);stroke-opacity:1;stroke-miterlimit:10;" d="M 88.597656 144.910156 L 92.132812 156.925781 "/>
<path style="fill:none;stroke-width:1.2;stroke-linecap:butt;stroke-linejoin:miter;stroke:rgb(0%,0%,100%);stroke-opacity:1;stroke-miterlimit:10;" d="M 92.132812 156.925781 L 95.671875 168.941406 "/>
<path style="fill:none;stroke-width:1.2;stroke-linecap:butt;stroke-linejoin:miter;stroke:rgb(0%,0%,0%);stroke-opacity:1;stroke-miterlimit:10;" d="M 63.554688 144.207031 L 88.597656 144.910156 "/>
<path style="fill:none;stroke-width:1.2;stroke-linecap:butt;stroke-linejoin:miter;stroke:rgb(0%,0%,0%);stroke-opacity:1;stroke-miterlimit:10;" d="M 65.894531 150.171875 L 85.929688 150.730469 "/>
<path style="fill:none;stroke-width:1.2;stroke-linecap:butt;stroke-linejoin:miter;stroke:rgb(0%,0%,100%);stroke-opacity:1;stroke-miterlimit:10;" d="M 95.671875 168.941406 L 75 183.09375 "/>
<path style="fill:none;stroke-width:1.2;stroke-linecap:butt;stroke-linejoin:miter;stroke:rgb(0%,0%,100%);stroke-opacity:1;stroke-miterlimit:10;" d="M 95.671875 168.941406 L 107.84375 171.886719 "/>
<path style="fill:none;stroke-width:1.2;stroke-linecap:butt;stroke-linejoin:miter;stroke:rgb(0%,0%,0%);stroke-opacity:1;stroke-miterlimit:10;" d="M 107.84375 171.886719 L 120.019531 174.835938 "/>
<path style=" stroke:none;fill-rule:nonzero;fill:rgb(100%,100%,100%);fill-opacity:1;" d="M 92.671875 163.441406 L 99.671875 163.441406 L 99.671875 174.441406 L 92.671875 174.441406 Z M 92.671875 163.441406 "/>
<g style="fill:rgb(0%,0%,100%);fill-opacity:1;">
  <use xlink:href="#glyph0-2" x="92.671875" y="172.104492"/>
</g>
<path style="fill:none;stroke-width:1.2;stroke-linecap:butt;stroke-linejoin:miter;stroke:rgb(0%,0%,100%);stroke-opacity:1;stroke-miterlimit:10;" d="M 75 183.09375 L 65.074219 175.453125 "/>
<path style="fill:none;stroke-width:1.2;stroke-linecap:butt;stroke-linejoin:miter;stroke:rgb(0%,0%,0%);stroke-opacity:1;stroke-miterlimit:10;" d="M 65.074219 175.453125 L 55.152344 167.808594 "/>
<path style="fill:none;stroke-width:1.2;stroke-linecap:butt;stroke-linejoin:miter;stroke:rgb(0%,0%,100%);stroke-opacity:1;stroke-miterlimit:10;" d="M 76.609375 176.894531 L 68.671875 170.78125 "/>
<path style="fill:none;stroke-width:1.2;stroke-linecap:butt;stroke-linejoin:miter;stroke:rgb(0%,0%,0%);stroke-opacity:1;stroke-miterlimit:10;" d="M 68.671875 170.78125 L 60.730469 164.667969 "/>
<path style=" stroke:none;fill-rule:nonzero;fill:rgb(100%,100%,100%);fill-opacity:1;" d="M 72 177.59375 L 79 177.59375 L 79 188.59375 L 72 188.59375 Z M 72 177.59375 "/>
<g style="fill:rgb(0%,0%,100%);fill-opacity:1;">
  <use xlink:href="#glyph0-2" x="72" y="186.256836"/>
</g>
<path style="fill:none;stroke-width:1.2;stroke-linecap:butt;stroke-linejoin:miter;stroke:rgb(0%,0%,0%);stroke-opacity:1;stroke-miterlimit:10;" d="M 55.152344 167.808594 L 63.554688 144.207031 "/>
<path style="fill:none;stroke-width:1.2;stroke-linecap:butt;stroke-linejoin:miter;stroke:rgb(0%,0%,0%);stroke-opacity:1;stroke-miterlimit:10;" d="M 63.554688 144.207031 L 49.402344 123.535156 "/>
<path style="fill:none;stroke-width:1.2;stroke-linecap:butt;stroke-linejoin:miter;stroke:rgb(0%,0%,0%);stroke-opacity:1;stroke-miterlimit:10;" d="M 49.402344 123.535156 L 42.328125 113.199219 "/>
<path style="fill:none;stroke-width:1.2;stroke-linecap:butt;stroke-linejoin:miter;stroke:rgb(0%,0%,100%);stroke-opacity:1;stroke-miterlimit:10;" d="M 42.328125 113.199219 L 35.25 102.863281 "/>
<path style="fill:none;stroke-width:1.2;stroke-linecap:butt;stroke-linejoin:miter;stroke:rgb(0%,0%,0%);stroke-opacity:1;stroke-miterlimit:10;" d="M 52.851562 118.140625 L 47.191406 109.871094 "/>
<path style="fill:none;stroke-width:1.2;stroke-linecap:butt;stroke-linejoin:miter;stroke:rgb(0%,0%,100%);stroke-opacity:1;stroke-miterlimit:10;" d="M 47.191406 109.871094 L 41.527344 101.601562 "/>
<path style="fill:none;stroke-width:1.2;stroke-linecap:butt;stroke-linejoin:miter;stroke:rgb(0%,0%,0%);stroke-opacity:1;stroke-miterlimit:10;" d="M 43.125 124.800781 L 37.460938 116.53125 "/>
<path style="fill:none;stroke-width:1.2;stroke-linecap:butt;stroke-linejoin:miter;stroke:rgb(0%,0%,100%);stroke-opacity:1;stroke-miterlimit:10;" d="M 37.460938 116.53125 L 31.800781 108.261719 "/>
<path style=" stroke:none;fill-rule:nonzero;fill:rgb(100%,100%,100%);fill-opacity:1;" d="M 28.25 97.363281 L 35.25 97.363281 L 35.25 108.363281 L 28.25 108.363281 Z M 28.25 97.363281 "/>
<g style="fill:rgb(0%,0%,100%);fill-opacity:1;">
  <use xlink:href="#glyph0-2" x="28.25" y="106.026367"/>
</g>
<path style="fill:none;stroke-width:1.2;stroke-linecap:butt;stroke-linejoin:miter;stroke:rgb(0%,0%,0%);stroke-opacity:1;stroke-miterlimit:10;" d="M 120.019531 174.835938 L 123.554688 186.851562 "/>
<path style="fill:none;stroke-width:1.2;stroke-linecap:butt;stroke-linejoin:miter;stroke:rgb(0%,0%,100%);stroke-opacity:1;stroke-miterlimit:10;" d="M 123.554688 186.851562 L 127.09375 198.867188 "/>
<path style="fill:none;stroke-width:1.2;stroke-linecap:butt;stroke-linejoin:miter;stroke:rgb(0%,0%,0%);stroke-opacity:1;stroke-miterlimit:10;" d="M 120.019531 174.835938 L 137.296875 156.691406 "/>
<path style="fill:none;stroke-width:1.2;stroke-linecap:butt;stroke-linejoin:miter;stroke:rgb(0%,0%,0%);stroke-opacity:1;stroke-miterlimit:10;" d="M 117.480469 168.953125 L 131.300781 154.441406 "/>
<path style="fill:none;stroke-width:1.2;stroke-linecap:butt;stroke-linejoin:miter;stroke:rgb(0%,0%,100%);stroke-opacity:1;stroke-miterlimit:10;" d="M 127.09375 198.867188 L 139.265625 201.8125 "/>
<path style="fill:none;stroke-width:1.2;stroke-linecap:butt;stroke-linejoin:miter;stroke:rgb(0%,0%,0%);stroke-opacity:1;stroke-miterlimit:10;" d="M 139.265625 201.8125 L 151.441406 204.757812 "/>
<path style=" stroke:none;fill-rule:nonzero;fill:rgb(100%,100%,100%);fill-opacity:1;" d="M 120.09375 193.367188 L 134.09375 193.367188 L 134.09375 204.367188 L 120.09375 204.367188 Z M 120.09375 193.367188 "/>
<g style="fill:rgb(0%,0%,100%);fill-opacity:1;">
  <use xlink:href="#glyph0-2" x="120.09375" y="202.030273"/>
  <use xlink:href="#glyph0-3" x="127.071289" y="202.030273"/>
</g>
<path style="fill:none;stroke-width:1.2;stroke-linecap:butt;stroke-linejoin:miter;stroke:rgb(0%,0%,0%);stroke-opacity:1;stroke-miterlimit:10;" d="M 151.441406 204.757812 L 175.476562 197.6875 "/>
<path style="fill:none;stroke-width:1.2;stroke-linecap:butt;stroke-linejoin:miter;stroke:rgb(0%,0%,0%);stroke-opacity:1;stroke-miterlimit:10;" d="M 169.582031 222.039062 L 151.441406 204.757812 "/>
<path style="fill:none;stroke-width:1.2;stroke-linecap:butt;stroke-linejoin:miter;stroke:rgb(0%,0%,0%);stroke-opacity:1;stroke-miterlimit:10;" d="M 175.476562 197.6875 L 169.582031 222.039062 "/>
</g>
</svg>

<svg xmlns="http://www.w3.org/2000/svg" xmlns:xlink="http://www.w3.org/1999/xlink" width="300pt" height="300pt" viewBox="0 0 300 300"><defs><symbol overflow="visible"><path d="M.453 1.594v-7.938h4.5v7.938zm.5-.5h3.5v-6.938h-3.5zm0 0"/></symbol><symbol overflow="visible" id="a"><path d="M3.547-5.953c-.65 0-1.164.242-1.547.72-.375.48-.563 1.13-.563 1.952 0 .835.188 1.49.563 1.967.383.48.898.72 1.547.72.644 0 1.156-.24 1.53-.72.376-.476.564-1.132.564-1.968 0-.822-.187-1.474-.562-1.954-.375-.477-.887-.72-1.53-.72zm0-.734c.914 0 1.648.312 2.203.937.55.617.828 1.438.828 2.47 0 1.042-.277 1.87-.828 2.483-.555.617-1.29.922-2.203.922-.93 0-1.668-.305-2.22-.922C.774-1.41.5-2.237.5-3.28c0-1.033.273-1.853.828-2.47.55-.625 1.29-.938 2.22-.938zm0 0"/></symbol><symbol overflow="visible" id="b"><path d="M.89-6.563H2.08l2.906 5.485v-5.484h.86V0H4.656L1.75-5.484V0H.89zm0 0"/></symbol><symbol overflow="visible" id="c"><path d="M.89-6.563h.876v2.688H5v-2.688h.89V0H5v-3.125H1.766V0H.89zm0 0"/></symbol></defs><g><path fill="#fff" d="M0 0h300v300H0z"/><path d="M258.766 131.47l-5.414 11.296" stroke-width="1.2" stroke="#f00" stroke-miterlimit="10" fill="none"/><path d="M253.352 142.766l-5.415 11.297" stroke-width="1.2" stroke="#000" stroke-miterlimit="10" fill="none"/><path d="M264.082 134.016l-5.414 11.297" stroke-width="1.2" stroke="#f00" stroke-miterlimit="10" fill="none"/><path d="M258.668 145.313l-5.414 11.296" stroke-width="1.2" stroke="#000" stroke-miterlimit="10" fill="none"/><path d="M257.422 127.242h8v11h-8zm0 0" fill="#fff"/><use xlink:href="#a" x="257.422" y="135.905" fill="#f00"/><path d="M250.598 155.336l-12.49.957" stroke-width="1.2" stroke="#000" stroke-miterlimit="10" fill="none"/><path d="M238.11 156.293l-12.493.96" stroke-width="1.2" stroke="#00f" stroke-miterlimit="10" fill="none"/><path d="M250.598 155.336l14.152 20.672" stroke-width="1.2" stroke="#000" stroke-miterlimit="10" fill="none"/><path d="M225.617 157.254l-5.41 11.297" stroke-width="1.2" stroke="#00f" stroke-miterlimit="10" fill="none"/><path d="M220.207 168.55l-5.414 11.298" stroke-width="1.2" stroke="#000" stroke-miterlimit="10" fill="none"/><path d="M225.617 157.254l-7.074-10.336" stroke-width="1.2" stroke="#00f" stroke-miterlimit="10" fill="none"/><path d="M218.543 146.918l-7.078-10.336" stroke-width="1.2" stroke="#000" stroke-miterlimit="10" fill="none"/><path d="M222.617 151.754h7v11h-7zm0 0" fill="#fff"/><use xlink:href="#b" x="222.617" y="160.417" fill="#00f"/><path d="M211.465 136.582l-24.977 1.922M208.516 130.898l-19.98 1.536M222.293 113.992l-10.828 22.59M186.488 138.504l-14.152-20.672M172.336 117.832l-12.418-1.656" stroke-width="1.2" stroke="#000" stroke-miterlimit="10" fill="none"/><path d="M159.918 116.176l-12.414-1.656" stroke-width="1.2" stroke="#00f" stroke-miterlimit="10" fill="none"/><path d="M183.16 95.242l-10.824 22.59M187.395 100.047l-8.66 18.074" stroke-width="1.2" stroke="#000" stroke-miterlimit="10" fill="none"/><path d="M147.504 114.52l-2.262-12.32" stroke-width="1.2" stroke="#00f" stroke-miterlimit="10" fill="none"/><path d="M145.242 102.2l-2.262-12.32" stroke-width="1.2" stroke="#000" stroke-miterlimit="10" fill="none"/><path d="M147.504 114.52l-8.64 9.07" stroke-width="1.2" stroke="#00f" stroke-miterlimit="10" fill="none"/><path d="M138.863 123.59l-8.636 9.07" stroke-width="1.2" stroke="#000" stroke-miterlimit="10" fill="none"/><path d="M144.504 109.02h7v11h-7zm0 0" fill="#fff"/><use xlink:href="#b" x="144.504" y="117.683" fill="#00f"/><path d="M142.98 89.88l22.04-11.92M147.988 93.87l17.63-9.53M165.02 77.96l18.14 17.282M183.16 95.242l24.98-1.922M208.14 93.32l14.153 20.672M204.69 98.715l11.322 16.54M130.227 132.66l-12.176-2.945" stroke-width="1.2" stroke="#000" stroke-miterlimit="10" fill="none"/><path d="M118.05 129.715l-12.175-2.945" stroke-width="1.2" stroke="#00f" stroke-miterlimit="10" fill="none"/><path d="M126.402 137.8l-9.738-2.36" stroke-width="1.2" stroke="#000" stroke-miterlimit="10" fill="none"/><path d="M116.664 135.44l-9.738-2.354" stroke-width="1.2" stroke="#00f" stroke-miterlimit="10" fill="none"/><path d="M137.297 156.69l-7.07-24.03" stroke-width="1.2" stroke="#000" stroke-miterlimit="10" fill="none"/><path d="M105.875 126.77l-8.637 9.07" stroke-width="1.2" stroke="#00f" stroke-miterlimit="10" fill="none"/><path d="M97.238 135.84l-8.64 9.07" stroke-width="1.2" stroke="#000" stroke-miterlimit="10" fill="none"/><path d="M102.875 121.27h7v11h-7zm0 0" fill="#fff"/><use xlink:href="#b" x="102.875" y="129.933" fill="#00f"/><path d="M88.598 144.91l3.535 12.016" stroke-width="1.2" stroke="#000" stroke-miterlimit="10" fill="none"/><path d="M92.133 156.926l3.54 12.015" stroke-width="1.2" stroke="#00f" stroke-miterlimit="10" fill="none"/><path d="M63.555 144.207l25.043.703M65.895 150.172l20.035.558" stroke-width="1.2" stroke="#000" stroke-miterlimit="10" fill="none"/><path d="M95.672 168.94L75 183.095M95.672 168.94l12.172 2.947" stroke-width="1.2" stroke="#00f" stroke-miterlimit="10" fill="none"/><path d="M107.844 171.887l12.176 2.95" stroke-width="1.2" stroke="#000" stroke-miterlimit="10" fill="none"/><path d="M92.672 163.44h7v11h-7zm0 0" fill="#fff"/><use xlink:href="#b" x="92.672" y="172.104" fill="#00f"/><path d="M75 183.094l-9.926-7.64" stroke-width="1.2" stroke="#00f" stroke-miterlimit="10" fill="none"/><path d="M65.074 175.453l-9.922-7.644" stroke-width="1.2" stroke="#000" stroke-miterlimit="10" fill="none"/><path d="M76.61 176.895l-7.938-6.114" stroke-width="1.2" stroke="#00f" stroke-miterlimit="10" fill="none"/><path d="M68.672 170.78l-7.942-6.112" stroke-width="1.2" stroke="#000" stroke-miterlimit="10" fill="none"/><path d="M72 177.594h7v11h-7zm0 0" fill="#fff"/><use xlink:href="#b" x="72" y="186.257" fill="#00f"/><path d="M55.152 167.81l8.403-23.603M63.555 144.207l-14.153-20.672M49.402 123.535L42.328 113.2" stroke-width="1.2" stroke="#000" stroke-miterlimit="10" fill="none"/><path d="M42.328 113.2l-7.078-10.337" stroke-width="1.2" stroke="#00f" stroke-miterlimit="10" fill="none"/><path d="M52.852 118.14l-5.66-8.27" stroke-width="1.2" stroke="#000" stroke-miterlimit="10" fill="none"/><path d="M47.19 109.87l-5.663-8.268" stroke-width="1.2" stroke="#00f" stroke-miterlimit="10" fill="none"/><path d="M43.125 124.8l-5.664-8.27" stroke-width="1.2" stroke="#000" stroke-miterlimit="10" fill="none"/><path d="M37.46 116.53l-5.66-8.268" stroke-width="1.2" stroke="#00f" stroke-miterlimit="10" fill="none"/><path d="M28.25 97.363h7v11h-7zm0 0" fill="#fff"/><use xlink:href="#b" x="28.25" y="106.026" fill="#00f"/><path d="M120.02 174.836l3.535 12.016" stroke-width="1.2" stroke="#000" stroke-miterlimit="10" fill="none"/><path d="M123.555 186.852l3.54 12.015" stroke-width="1.2" stroke="#00f" stroke-miterlimit="10" fill="none"/><path d="M120.02 174.836l17.277-18.145M117.48 168.953l13.82-14.512" stroke-width="1.2" stroke="#000" stroke-miterlimit="10" fill="none"/><path d="M127.094 198.867l12.172 2.946" stroke-width="1.2" stroke="#00f" stroke-miterlimit="10" fill="none"/><path d="M139.266 201.813l12.175 2.945" stroke-width="1.2" stroke="#000" stroke-miterlimit="10" fill="none"/><path d="M120.094 193.367h14v11h-14zm0 0" fill="#fff"/><g fill="#00f"><use xlink:href="#b" x="120.094" y="202.03"/><use xlink:href="#c" x="127.071" y="202.03"/></g><path d="M151.44 204.758l24.037-7.07M169.582 222.04l-18.14-17.282M175.477 197.688l-5.895 24.35" stroke-width="1.2" stroke="#000" stroke-miterlimit="10" fill="none"/></g></svg>
